X:17
T:The Chorus Jig
S:Bernie Waugh
R:Reel
M:2/4
L:1/16
K:D
|:AG|\
"D"F2DF ABAG|FADF "Bm"A2d2|"D"D3F ABAF|"Em"GFEF G2:|
K:G
Bc|\
"G"dBcA BGFG|"D"Ad^cd A2B=c|"G"dBcA BGFG|"D"AcBA "G"G2Bc|
dBcA BGFG|"C"ABcd efge|"G"dBcA BGFG|"D"AcBA "G"G2||
K:D
|:ag|\
"D"fddd fddd|fdfg "A"abag|"D"fddd fddd|edef g2:|
K:G
Bc|\
"G"dBcA BGFG|"D"Ad^cd A2B=c|"G"dBcA BGFG|"D"AcBA "G"G2Bc|
dBcA BGFG|"C"ABcd efge|"G"dBcA BGFG|"D"AcBA "G"G2|]

